X:57
T:Fishers Hornpipe
C:Joe Buchanan's Scottish Tome - Page 240.2
I:240 2
Z:Carl 
L:1/8
R:Hornpipe
K:D
((3ABc) | "D"dAFA "G"GBAG | "D"FDFD "G"GBAG | "D"FDFD "G"GFGE | "D"FEFD E2 "A7"((3ABc) |
"D"dAFA "G"GBAG | "D"FDFD "G"GBAG | "D"FAdf "A7"edce | "D"d2 d2 d2 :|
(cd) | "A7"ecAc ecge | "D"fdAd fdaf | "A7"ecAc ecgf | "E7"((3efe) ((3dcB) "A7"A2 A2 |
"G"BGDG BGdB | "D"AFDF AFdA | "G"BdcB "A7"((3ABA) ((3GFE) | "D"D2 F2 D2 :|

